X:1
T: Disconnect
C: Jeremy Kittel
R: jig
M: 6/8
L: 1/8
K: Emin
|:"Em"~E3 BEc- | cBA Bcd | "D"~D3 ADB- | BAG F2G |
 "Em"~E3 BEc- | cBA Bcd |"D"~D3 Bcd |1 "Bm"DGD A2 B :|2 "Bm"~D3 Bcd|]
|: "C"e2G GFG | "D"A3 ABc | "Bm"d2F FEF |"C"G2A Bcd |
 "Am/C"e2G GFG | "Bm/D"A3 Adc | "Bm/C"BAG FED |1 "Em"EFG "D"ABd :|2 "D"EFG FDB, |]
%%text Transition: Just play the second ending as written into Coco Roco!
